X:50
T: Merry May the Maid Be 
N: HA050
O: Europa, Mitteleuropa, Deutschland
M: 2/2
L: 1/16
K: Dm
F3G | A6B2A4G4 | F4E4D4
E4 | F6G2A4B4 | _c8G4
c3B | A6B2A4G4 | F6E2D4
F4 | A4f4E4c4 | d8A4
A4 | d6f2e4d4 | c4d4A6
A2 | F4F4_c6A2 | G8E4z2
_c2 | A6B2A4G4 | F4E4D6
F2 | A4f4e6f2 | d8A4
